!!!OTL: "Der Schlemmer" NUN SCHUERZ DICH GRETLEIN
!!!ARE: Europa, Mitteleuropa, Deutschland, Sachsen
!!!SCT: Z1105
!!!YEM: Copyright 1995, estate of Helmut Schaffrath.
**kern
*ICvox
*Ivox
*M4/4
*k[f#]
*G:
{4d
=1
4.d
8g
4.g
8b
=2
2b
4dd}
{4dd
=3
4dd
4cc
4a
4a
=4
4b
8b
8a
4b}
{4d
=5
4.d
8g
4.g
8b
=6
2b
4dd}
{4dd
=7
4dd
4cc
4a
4f#
=8
2g
4r}
{4dd
=9
4dd
4cc
4a
4f#
=10
4g
4b
4dd}
{4dd
=11
4dd
4cc
4a
4f#
=12
4g
4b
4dd}
{4g
=13
4.g
8b
4.b
8dd
=14
2dd
4b}
{4dd
=15
4dd
4cc
4a
4f#
=16
2g
4r}
==
!!!AGN: Romanze, Ballade
!!!ONB: ESAC (Essen Associative Code) Database: ZUCCAL
!!!AMT: simple quadruple
!!!AIN: vox
!!!EED: Helmut Schaffrath
!!!EEV: 1.0
*-
